packages/core/assets/Icons/settings_outlined.svg

<svg viewBox="0 0 20 20" fill="none" xmlns="http://www.w3.org/2000/svg">
<path d="M9.02082 18.3333C8.64582 18.3333 8.3229 18.2083 8.05207 17.9583C7.78123 17.7083 7.61804 17.4027 7.56248 17.0416L7.37498 15.6666C7.19443 15.5972 7.02429 15.5138 6.86457 15.4166C6.70484 15.3194 6.54859 15.2152 6.39582 15.1041L5.10415 15.6458C4.75693 15.7986 4.40971 15.8125 4.06248 15.6875C3.71526 15.5625 3.44443 15.3402 3.24998 15.0208L2.27082 13.3125C2.07637 12.993 2.02082 12.6527 2.10415 12.2916C2.18748 11.9305 2.37498 11.6319 2.66665 11.3958L3.77082 10.5625C3.75693 10.4652 3.74998 10.3715 3.74998 10.2812V9.71871C3.74998 9.62843 3.75693 9.53468 3.77082 9.43746L2.66665 8.60413C2.37498 8.36801 2.18748 8.0694 2.10415 7.70829C2.02082 7.34718 2.07637 7.0069 2.27082 6.68746L3.24998 4.97913C3.44443 4.65968 3.71526 4.43746 4.06248 4.31246C4.40971 4.18746 4.75693 4.20135 5.10415 4.35413L6.39582 4.89579C6.54859 4.78468 6.70832 4.68051 6.87498 4.58329C7.04165 4.48607 7.20832 4.40274 7.37498 4.33329L7.56248 2.95829C7.61804 2.59718 7.78123 2.29163 8.05207 2.04163C8.3229 1.79163 8.64582 1.66663 9.02082 1.66663H10.9791C11.3541 1.66663 11.6771 1.79163 11.9479 2.04163C12.2187 2.29163 12.3819 2.59718 12.4375 2.95829L12.625 4.33329C12.8055 4.40274 12.9757 4.48607 13.1354 4.58329C13.2951 4.68051 13.4514 4.78468 13.6041 4.89579L14.8958 4.35413C15.243 4.20135 15.5903 4.18746 15.9375 4.31246C16.2847 4.43746 16.5555 4.65968 16.75 4.97913L17.7291 6.68746C17.9236 7.0069 17.9791 7.34718 17.8958 7.70829C17.8125 8.0694 17.625 8.36801 17.3333 8.60413L16.2291 9.43746C16.243 9.53468 16.25 9.62843 16.25 9.71871V10.2812C16.25 10.3715 16.2361 10.4652 16.2083 10.5625L17.3125 11.3958C17.6041 11.6319 17.7916 11.9305 17.875 12.2916C17.9583 12.6527 17.9028 12.993 17.7083 13.3125L16.7083 15.0208C16.5139 15.3402 16.243 15.5625 15.8958 15.6875C15.5486 15.8125 15.2014 15.7986 14.8541 15.6458L13.6041 15.1041C13.4514 15.2152 13.2916 15.3194 13.125 15.4166C12.9583 15.5138 12.7916 15.5972 12.625 15.6666L12.4375 17.0416C12.3819 17.4027 12.2187 17.7083 11.9479 17.9583C11.6771 18.2083 11.3541 18.3333 10.9791 18.3333H9.02082ZM9.16665 16.6666H10.8125L11.1041 14.4583C11.5347 14.3472 11.934 14.184 12.3021 13.9687C12.6701 13.7534 13.0069 13.493 13.3125 13.1875L15.375 14.0416L16.1875 12.625L14.3958 11.2708C14.4653 11.0763 14.5139 10.8715 14.5416 10.6562C14.5694 10.4409 14.5833 10.2222 14.5833 9.99996C14.5833 9.77774 14.5694 9.55899 14.5416 9.34371C14.5139 9.12843 14.4653 8.92357 14.3958 8.72913L16.1875 7.37496L15.375 5.95829L13.3125 6.83329C13.0069 6.51385 12.6701 6.24649 12.3021 6.03121C11.934 5.81593 11.5347 5.65274 11.1041 5.54163L10.8333 3.33329H9.18748L8.89582 5.54163C8.46526 5.65274 8.06596 5.81593 7.6979 6.03121C7.32984 6.24649 6.99304 6.5069 6.68748 6.81246L4.62498 5.95829L3.81248 7.37496L5.60415 8.70829C5.53471 8.91663 5.48609 9.12496 5.45832 9.33329C5.43054 9.54163 5.41665 9.76385 5.41665 9.99996C5.41665 10.2222 5.43054 10.4375 5.45832 10.6458C5.48609 10.8541 5.53471 11.0625 5.60415 11.2708L3.81248 12.625L4.62498 14.0416L6.68748 13.1666C6.99304 13.4861 7.32984 13.7534 7.6979 13.9687C8.06596 14.184 8.46526 14.3472 8.89582 14.4583L9.16665 16.6666ZM10.0416 12.9166C10.8472 12.9166 11.5347 12.6319 12.1041 12.0625C12.6736 11.493 12.9583 10.8055 12.9583 9.99996C12.9583 9.1944 12.6736 8.5069 12.1041 7.93746C11.5347 7.36801 10.8472 7.08329 10.0416 7.08329C9.22221 7.08329 8.53123 7.36801 7.96873 7.93746C7.40623 8.5069 7.12498 9.1944 7.12498 9.99996C7.12498 10.8055 7.40623 11.493 7.96873 12.0625C8.53123 12.6319 9.22221 12.9166 10.0416 12.9166Z" fill="currentColor"/>
</svg>

<svg xmlns="http://www.w3.org/2000/svg" width="20" height="20" fill="none" viewBox="0 0 20 20">
  <path fill="#201F1F" d="M9.02 18.333a1.38 1.38 0 0 1-.968-.375 1.532 1.532 0 0 1-.49-.916l-.187-1.375a3.26 3.26 0 0 1-.51-.25 6.86 6.86 0 0 1-.47-.313l-1.29.542a1.357 1.357 0 0 1-1.043.041 1.536 1.536 0 0 1-.812-.666l-.98-1.709a1.32 1.32 0 0 1-.166-1.02c.083-.361.271-.66.563-.896l1.104-.834a1.99 1.99 0 0 1-.021-.28v-.563c0-.09.007-.184.02-.282l-1.103-.833a1.581 1.581 0 0 1-.563-.896 1.322 1.322 0 0 1 .167-1.02l.979-1.709c.194-.32.465-.542.812-.667a1.357 1.357 0 0 1 1.042.042l1.292.542a5.89 5.89 0 0 1 .479-.313c.167-.097.333-.18.5-.25l.187-1.375c.056-.36.22-.666.49-.916s.594-.375.969-.375h1.958c.375 0 .698.125.969.375.27.25.434.555.49.916l.187 1.375c.18.07.35.153.51.25.16.098.316.202.47.313l1.29-.542a1.357 1.357 0 0 1 1.043-.042c.347.125.617.348.812.667l.98 1.708c.194.32.25.66.166 1.021a1.58 1.58 0 0 1-.563.896l-1.104.833c.014.098.021.191.021.282v.562c0 .09-.014.184-.042.281l1.105.834c.291.236.479.534.562.896.083.36.028.701-.167 1.02l-1 1.709a1.53 1.53 0 0 1-.812.666 1.357 1.357 0 0 1-1.042-.041l-1.25-.542a5.673 5.673 0 0 1-.479.313 4.2 4.2 0 0 1-.5.25l-.188 1.375a1.532 1.532 0 0 1-.49.916 1.38 1.38 0 0 1-.968.375H9.021Zm.147-1.666h1.646l.291-2.209a4.67 4.67 0 0 0 1.198-.49 4.985 4.985 0 0 0 1.01-.78l2.063.854.813-1.417-1.792-1.354c.07-.195.118-.4.146-.615a5.119 5.119 0 0 0 0-1.312 2.932 2.932 0 0 0-.146-.615l1.791-1.354-.812-1.417-2.063.875a4.63 4.63 0 0 0-1.01-.802 4.672 4.672 0 0 0-1.198-.49l-.27-2.208H9.186l-.291 2.209c-.43.11-.83.274-1.198.49a4.98 4.98 0 0 0-1.01.78l-2.063-.854-.813 1.417 1.792 1.333a3.39 3.39 0 0 0-.146.625 5.05 5.05 0 0 0 0 1.313c.028.208.077.416.146.625l-1.792 1.354.813 1.417 2.062-.875c.306.32.643.586 1.01.802a4.67 4.67 0 0 0 1.199.49l.27 2.208Zm.875-3.75a2.81 2.81 0 0 0 2.062-.854A2.81 2.81 0 0 0 12.958 10a2.81 2.81 0 0 0-.854-2.063 2.81 2.81 0 0 0-2.062-.854c-.82 0-1.51.285-2.073.854A2.828 2.828 0 0 0 7.125 10c0 .806.281 1.493.844 2.063.562.569 1.253.854 2.073.854Z"/>
</svg>
